Radio/Source/NRK P1Pluss.svg

<svg id="a" version="1.1" viewBox="0 0 431.8 141.8" xml:space="preserve" xmlns="http://www.w3.org/2000/svg">
<style id="b" type="text/css">
	.st0{fill:#FFFFFF;}
	.st1{fill:#830A85;}
</style>
<g id="c" fill="#fff">
	<rect id="d" class="st0" y="34.7" width="25.4" height="72.4"/>
	<rect id="e" class="st0" x="72.4" y="34.7" width="25.4" height="72.4"/>
	<rect id="f" class="st0" x="129.6" y="34.7" width="25.4" height="72.4"/>
	<path id="g" class="st0" d="m113.7 33.2c-7.9 0-14.3 6.5-14.3 14.4 0 8 6.4 14.4 14.3 14.4s14.3-6.5 14.3-14.4c0-8-6.4-14.4-14.3-14.4z"/>
	<path id="h" class="st0" d="m186.7 74.2c-1.5-2.6-1.6-4.2-0.1-6.6l20.1-32.9h-27.9s-16.8 27.4-19.1 31.2-2.2 6.2 0.1 10.1 19 31.1 19 31.1h27.9s-19.8-32.5-20-32.9z"/>
	<path id="i" class="st0" d="m70.8 107-13.6-60.7c-1.3-6.6-7.1-11.6-14.1-11.6h-16.2l16.4 72.4z"/>
</g>
<g id="j">
	<path id="k" class="st1" d="m292.4 0c-39.2 0-70.9 31.7-70.9 70.9 0 39.1 31.7 70.9 70.9 70.9 39.1 0 70.9-31.7 70.9-70.9-0.1-39.2-31.8-70.9-70.9-70.9z" fill="#830a85"/>
	<g id="l">
		<path id="m" class="st0" d="m404.4 62v-27.4h-17.7v27.4h-17.5c0.3 2.9 0.5 5.9 0.5 8.8 0 3-0.2 5.9-0.5 8.8h17.5v27.4h17.7v-27.3h27.4v-17.7z" fill="#fff"/>
	</g>
</g>
<g id="n" fill="#fff">
	<polygon id="o" class="st0" points="336.5 34.6 331.6 34.6 308.3 34.6 308.3 50 318.9 50 318.9 107.1 336.5 107.1"/>
	<path id="p" class="st0" d="m265.5 49.9h9.2c7.1 0 10.4 3.8 10.4 9.9s-3.5 9.9-10.8 9.9h-3.3v14.5h4.3c18.4 0 27.4-9.6 27.4-25.2 0-15.3-9.8-24.4-26.5-24.4h-28.5v72.4h17.8z"/>
</g>
</svg>

<?xml version="1.0" encoding="UTF-8" standalone="no"?>
<!-- Generator: Adobe Illustrator 22.0.1, SVG Export Plug-In . SVG Version: 6.00 Build 0)  -->

<svg
   xmlns:dc="http://purl.org/dc/elements/1.1/"
   xmlns:cc="http://creativecommons.org/ns#"
   xmlns:rdf="http://www.w3.org/1999/02/22-rdf-syntax-ns#"
   xmlns:svg="http://www.w3.org/2000/svg"
   xmlns="http://www.w3.org/2000/svg"
   xmlns:sodipodi="http://sodipodi.sourceforge.net/DTD/sodipodi-0.dtd"
   xmlns:inkscape="http://www.inkscape.org/namespaces/inkscape"
   version="1.1"
   id="Layer_1"
   x="0px"
   y="0px"
   viewBox="0 0 431.79998 141.80001"
   xml:space="preserve"
   sodipodi:docname="NRK P1Pluss.svg"
   width="431.79999"
   height="141.8"
   inkscape:version="0.92.3 (2405546, 2018-03-11)"><metadata
   id="metadata37"><rdf:RDF><cc:Work
       rdf:about=""><dc:format>image/svg+xml</dc:format><dc:type
         rdf:resource="http://purl.org/dc/dcmitype/StillImage" /><dc:title></dc:title></cc:Work></rdf:RDF></metadata><defs
   id="defs35" /><sodipodi:namedview
   pagecolor="#ffffff"
   bordercolor="#666666"
   borderopacity="1"
   objecttolerance="10"
   gridtolerance="10"
   guidetolerance="10"
   inkscape:pageopacity="0"
   inkscape:pageshadow="2"
   inkscape:window-width="716"
   inkscape:window-height="480"
   id="namedview33"
   showgrid="false"
   fit-margin-top="0"
   fit-margin-left="0"
   fit-margin-right="0"
   fit-margin-bottom="0"
   inkscape:zoom="0.65786424"
   inkscape:cx="215.85001"
   inkscape:cy="70.950002"
   inkscape:window-x="0"
   inkscape:window-y="0"
   inkscape:window-maximized="0"
   inkscape:current-layer="Layer_1" />
<style
   type="text/css"
   id="style2">
	.st0{fill:#FFFFFF;}
	.st1{fill:#830A85;}
</style>
<g
   id="g16">
	<rect
   y="34.700001"
   class="st0"
   width="25.4"
   height="72.400002"
   id="rect4"
   x="0"
   style="fill:#ffffff" />
	<rect
   x="72.400002"
   y="34.700001"
   class="st0"
   width="25.4"
   height="72.400002"
   id="rect6"
   style="fill:#ffffff" />
	<rect
   x="129.60001"
   y="34.700001"
   class="st0"
   width="25.4"
   height="72.400002"
   id="rect8"
   style="fill:#ffffff" />
	<path
   class="st0"
   d="m 113.7,33.2 c -7.9,0 -14.3,6.5 -14.3,14.4 0,8 6.4,14.4 14.3,14.4 7.9,0 14.3,-6.5 14.3,-14.4 0,-8 -6.4,-14.4 -14.3,-14.4 z"
   id="path10"
   inkscape:connector-curvature="0"
   style="fill:#ffffff" />
	<path
   class="st0"
   d="m 186.7,74.2 c -1.5,-2.6 -1.6,-4.2 -0.1,-6.6 l 20.1,-32.9 h -27.9 c 0,0 -16.8,27.4 -19.1,31.2 -2.3,3.8 -2.2,6.2 0.1,10.1 2.3,3.9 19,31.1 19,31.1 h 27.9 c 0,0 -19.8,-32.5 -20,-32.9 z"
   id="path12"
   inkscape:connector-curvature="0"
   style="fill:#ffffff" />
	<path
   class="st0"
   d="M 70.8,107 57.2,46.3 C 55.9,39.7 50.1,34.7 43.1,34.7 H 26.9 l 16.4,72.4 z"
   id="path14"
   inkscape:connector-curvature="0"
   style="fill:#ffffff" />
</g>
<g
   id="g24">
	<path
   class="st1"
   d="m 292.4,0 c -39.2,0 -70.9,31.7 -70.9,70.9 0,39.1 31.7,70.9 70.9,70.9 39.1,0 70.9,-31.7 70.9,-70.9 C 363.2,31.7 331.5,0 292.4,0 Z"
   id="path18"
   inkscape:connector-curvature="0"
   style="fill:#830a85" />
	<g
   id="g22">
		<path
   class="st0"
   d="M 404.4,62 V 34.6 H 386.7 V 62 h -17.5 c 0.3,2.9 0.5,5.9 0.5,8.8 0,3 -0.2,5.9 -0.5,8.8 h 17.5 V 107 h 17.7 V 79.7 h 27.4 V 62 Z"
   id="path20"
   inkscape:connector-curvature="0"
   style="fill:#ffffff" />
	</g>
</g>
<g
   id="g30">
	<polygon
   class="st0"
   points="336.5,34.6 331.6,34.6 308.3,34.6 308.3,50 318.9,50 318.9,107.1 336.5,107.1 "
   id="polygon26"
   style="fill:#ffffff" />
	<path
   class="st0"
   d="m 265.5,49.9 h 9.2 c 7.1,0 10.4,3.8 10.4,9.9 0,6.1 -3.5,9.9 -10.8,9.9 H 271 v 14.5 h 4.3 c 18.4,0 27.4,-9.6 27.4,-25.2 0,-15.3 -9.8,-24.4 -26.5,-24.4 H 247.7 V 107 h 17.8 z"
   id="path28"
   inkscape:connector-curvature="0"
   style="fill:#ffffff" />
</g>
</svg>
